material/.icons/material/monitor-off.svg

<svg xmlns="http://www.w3.org/2000/svg" viewBox="0 0 24 24"><path d="M14 18v2h2v2H8v-2h2v-2H3a2 2 0 01-2-2V4L0 3l1.41-1.42 20.75 20.76-1.41 1.41L15 18h-1M3 16h10L3 6v10M21 2a2 2 0 012 2v12a2 2 0 01-2 2h-.34l-2-2H21V4H6.66l-2-2H21z"/></svg>

<?xml version="1.0" encoding="UTF-8"?><!DOCTYPE svg PUBLIC "-//W3C//DTD SVG 1.1//EN" "http://www.w3.org/Graphics/SVG/1.1/DTD/svg11.dtd"><svg xmlns="http://www.w3.org/2000/svg" xmlns:xlink="http://www.w3.org/1999/xlink" version="1.1" id="mdi-monitor-off" width="24" height="24" viewBox="0 0 24 24"><path d="M14,18V20H16V22H8V20H10V18H3A2,2 0 0,1 1,16V4L0,3L1.41,1.58L22.16,22.34L20.75,23.75L15,18H14M3,16H13L3,6V16M21,2A2,2 0 0,1 23,4V16A2,2 0 0,1 21,18H20.66L18.66,16H21V4H6.66L4.66,2H21Z" /></svg>
